!!!SOCIAL_FUNCTION:	moccasin game songs
!!!PDT:	1932
!!!OTL: No_130_I_Will_Hide_My_Bullet.krn
!!!REG: Wisconsin
!!!LANG: Non-Tone
!!!LING_GROUP: Algonquin
**kern
*staff1
=1-
=
*clefF4
*k[b-]
*M2/4
8C/L
8C/J
8.G\L
16G\Jk
=2
4G\
8c\L
8G\J
=3
4F\
8C/L
8C/J
=4
4.C/
8r
=5
8G\L
8G\J
8.G\L
16F\Jk
=6
4F\
8F\L
8F\J
=7
4D\
8C/L
8C/J
=8
4.C/
8r
=9:|!
8D\L
8D\J
8.D/L
16C/Jk
=10
4C/
8C/L
8AA/J
=11
4AA/
8GG/L
8GG/J
=12
4.GG/
8r
=13
8GG/L
8GG/J
8.C/L
16C/Jk
=14
4C/
8D/L
8C/J
=15
4C/
8C/L
8C/J
=16
4.C/
8r
==
*-
